styles/2/Numix/256/places/orange-folder-dropbox.svg

<?xml version="1.0" encoding="UTF-8" standalone="no"?>
<svg
   xmlns:dc="http://purl.org/dc/elements/1.1/"
   xmlns:cc="http://creativecommons.org/ns#"
   xmlns:rdf="http://www.w3.org/1999/02/22-rdf-syntax-ns#"
   xmlns:svg="http://www.w3.org/2000/svg"
   xmlns="http://www.w3.org/2000/svg"
   xmlns:sodipodi="http://sodipodi.sourceforge.net/DTD/sodipodi-0.dtd"
   xmlns:inkscape="http://www.inkscape.org/namespaces/inkscape"
   width="256px"
   height="256px"
   viewBox="0 0 256 256"
   version="1.1"
   id="svg3007"
   inkscape:version="0.91 r"
   sodipodi:docname="orange-folder-dropbox.svg">
  <metadata
     id="metadata3020">
    <rdf:RDF>
      <cc:Work
         rdf:about="">
        <dc:format>image/svg+xml</dc:format>
        <dc:type
           rdf:resource="http://purl.org/dc/dcmitype/StillImage" />
      </cc:Work>
    </rdf:RDF>
  </metadata>
  <defs
     id="defs3018" />
  <sodipodi:namedview
     pagecolor="#ffffff"
     bordercolor="#666666"
     borderopacity="1"
     objecttolerance="10"
     gridtolerance="10"
     guidetolerance="10"
     inkscape:pageopacity="0"
     inkscape:pageshadow="2"
     inkscape:window-width="668"
     inkscape:window-height="480"
     id="namedview3016"
     showgrid="false"
     inkscape:zoom="0.921875"
     inkscape:cx="128"
     inkscape:cy="128"
     inkscape:window-x="0"
     inkscape:window-y="0"
     inkscape:window-maximized="0"
     inkscape:current-layer="svg3007" />
  <path
     inkscape:connector-curvature="0"
     id="path3010"
     d="m 36,32 c -5.859375,0 -12,6.046875 -12,12 l 0,4 -12,0 C 6.117188,48 0,53.984375 0,60 l 0,152 c 0,8 4,12 12,12 l 232,0 c 6.27344,0 12,-5.42969 12,-12 l 0,-132 c 0,-6.023438 -5.82031,-12 -12,-12 l -12,0 0,-24 c 0,-5.84375 -5.8125,-12 -12,-12 z m 0,0"
     style="fill:#f57c00;fill-opacity:1;fill-rule:nonzero;stroke:none" />
  <path
     inkscape:connector-curvature="0"
     id="path3012"
     d="m 36,32 c -5.859375,0 -12,6.046875 -12,12 l 0,4 -12,0 C 6.117188,48 0,53.984375 0,60 l 0,152 c 0,8 4,12 12,12 l 232,0 c 6.27344,0 12,-5.42969 12,-12 l 0,-132 c 0,-6.023438 -5.82031,-12 -12,-12 l -12,0 0,-24 c 0,-5.84375 -5.8125,-12 -12,-12 z m -24,24 136,0 c 2.35937,0 4,2.0625 4,4 l 0,16 92,0 c 2.02344,0 4,2.03125 4,4 l 0,132 c 0,2.08594 -1.91406,4 -4,4 l -232,0 c -1.859375,0 -4,-1.58594 -4,-4 L 8,60 c 0,-1.96875 2.0625,-4 4,-4 z m 0,0"
     style="fill:#000000;fill-opacity:0.32156899;fill-rule:nonzero;stroke:none" />
  <path
     inkscape:connector-curvature="0"
     id="path3014"
     d="M 100,96 72,118.0625 100,136.96875 72,162.17969 128,200 184,162.17969 156,136.96875 184,118.0625 156,96 128,118.0625 z m 0,0"
     style="fill:#000000;fill-opacity:0.32156899;fill-rule:nonzero;stroke:none" />
</svg>

<svg xmlns="http://www.w3.org/2000/svg" viewBox="0 0 256 256">
 <path d="m 36 32 c -5.859 0 -12 6.05 -12 12 l 0 4 -12 0 c -5.883 0 -12 5.984 -12 12 l 0 152 c 0 8 4 12 12 12 l 232 0 c 6.273 0 12 -5.43 12 -12 l 0 -132 c 0 -6.02 -5.82 -12 -12 -12 l -12 0 0 -24 c 0 -5.844 -5.813 -12 -12 -12 z m 0 0" style="fill:#f57c00;fill-opacity:1;stroke:none;fill-rule:nonzero"/>
 <path d="m 36 32 c -5.859 0 -12 6.05 -12 12 l 0 4 -12 0 c -5.883 0 -12 5.984 -12 12 l 0 152 c 0 8 4 12 12 12 l 232 0 c 6.273 0 12 -5.43 12 -12 l 0 -132 c 0 -6.02 -5.82 -12 -12 -12 l -12 0 0 -24 c 0 -5.844 -5.813 -12 -12 -12 z m -24 24 136 0 c 2.359 0 4 2.063 4 4 l 0 16 92 0 c 2.023 0 4 2.031 4 4 l 0 132 c 0 2.086 -1.914 4 -4 4 l -232 0 c -1.859 0 -4 -1.586 -4 -4 l 0 -152 c 0 -1.969 2.063 -4 4 -4 z m 0 0" style="fill:#000;fill-opacity:0.322;stroke:none;fill-rule:nonzero"/>
 <path d="m 100 96 -28 22.06 28 18.906 -28 25.21 56 37.82 56 -37.82 -28 -25.21 28 -18.906 -28 -22.06 -28 22.06 z m 0 0" style="fill:#000;fill-opacity:0.322;stroke:none;fill-rule:nonzero"/>
</svg>
